svg/account_school_outline.svg

<svg xmlns="http://www.w3.org/2000/svg" viewBox="0 0 24 24"><path d="M18 10.5V6l-2.11 1.06A4 4 0 0 1 12 12a4 4 0 0 1-3.89-4.94L5 5.5 12 2l7 3.5v5zM12 9l-2-1c0 1.1.9 2 2 2s2-.9 2-2zm2.75-3.58L12.16 4.1 9.47 5.47l2.6 1.32zM12 13c2.67 0 8 1.33 8 4v3H4v-3c0-2.67 5.33-4 8-4m0 1.9c-3 0-6.1 1.46-6.1 2.1v1.1h12.2V17c0-.64-3.13-2.1-6.1-2.1"/></svg>

<svg xmlns="http://www.w3.org/2000/svg" id="mdi-account-school-outline" viewBox="0 0 24 24"><path d="M18 10.5V6L15.89 7.06C15.96 7.36 16 7.67 16 8C16 10.21 14.21 12 12 12C9.79 12 8 10.21 8 8C8 7.67 8.04 7.36 8.11 7.06L5 5.5L12 2L19 5.5V10.5H18M12 9L10 8C10 9.1 10.9 10 12 10C13.1 10 14 9.1 14 8L12 9M14.75 5.42L12.16 4.1L9.47 5.47L12.07 6.79L14.75 5.42M12 13C14.67 13 20 14.33 20 17V20H4V17C4 14.33 9.33 13 12 13M12 14.9C9 14.9 5.9 16.36 5.9 17V18.1H18.1V17C18.1 16.36 14.97 14.9 12 14.9Z" /></svg>
